img/4-5maisde30anos.svg

<svg fill="none" height="66" viewBox="0 0 66 66" width="66" xmlns="http://www.w3.org/2000/svg"><g fill="#fff"><path d="m64.5671 6.49847h-10.9923v-5.14532c0-.358876-.1426-.703056-.3963-.956821-.2538-.253765-.598-.396329-.9569-.396329h-7.9017c-.3604-.0000268-.7063.142002-.9628.395298-.2564.253296-.4027.597448-.407.957852v5.14532h-20.0467v-5.14532c.0004-.34759-.133-.682021-.3725-.93395s-.5667-.402035-.9139-.4192h-7.9017c-.3589 0-.7031.142564-.9568.396329-.2538.253765-.3964.597945-.3964.956821v5.14532h-11.00895c-.358876 0-.703056.14257-.956821.39633-.253765.25377-.396329.59795-.396329.95682v56.59848c-.0000268.3605.142002.7064.395298.9628s.597448.4027.957852.4071h63.21395c.3604-.0044.7045-.1507.9578-.4071s.3953-.6023.3953-.9628v-56.59848c0-.17769-.035-.35365-.103-.51782-.068-.16418-.1676-.31335-.2933-.439s-.2748-.22532-.439-.29333c-.1642-.068-.3401-.103-.5178-.103zm-18.894-3.79217h5.1787v10.2739h-5.1787zm-30.6381 0h5.1955v10.2739h-5.1955zm-12.3287 6.49848h9.6558v5.12862c0 .3589.1426.703.3964.9568.2537.2538.5979.3963.9568.3963h7.9017c.1777 0 .3537-.035.5179-.103.1641-.068.3133-.1676.4389-.2933.1257-.1256.2254-.2748.2934-.439s.103-.3401.103-.5178v-5.12862h20.0467v5.12862c.0044.3604.1506.7045.4071.9578.2564.2533.6023.3954.9627.3953h7.9018c.3589 0 .703-.1425.9568-.3963s.3963-.5979.3963-.9568v-5.12862h9.6391v10.02332h-60.5744zm60.5076 53.89222h-60.5076v-41.2127h60.5076z"/><path d="m10.7418 56.4323h8.2526c.3575-.0043.6992-.1483.952-.4011s.3968-.5945.4011-.952v-8.3027c0-.3589-.1425-.7031-.3963-.9568-.2538-.2538-.5979-.3964-.9568-.3964h-8.2526c-.3589 0-.703.1426-.9568.3964-.25376.2537-.39633.5979-.39633.9568v8.3528c.01298.3501.16125.6815.41362.9246.25241.243.58921.3787.93951.3784zm1.3532-8.2525h5.5295v5.5295h-5.5295z"/><path d="m28.8336 39.5243h8.2526c.3589 0 .703-.1426.9568-.3963.2538-.2538.3963-.598.3963-.9569v-8.2525c0-.3589-.1425-.7031-.3963-.9568-.2538-.2538-.5979-.3964-.9568-.3964h-8.2526c-.3589 0-.703.1426-.9568.3964-.2538.2537-.3963.5979-.3963.9568v8.2525c.0043.3576.1483.6992.4011.9521.2528.2528.5945.3968.952.4011zm1.3699-8.2526h5.5295v5.4795h-5.5295z"/><path d="m10.7418 39.5243h8.2526c.3575-.0043.6992-.1483.952-.4011.2528-.2529.3968-.5945.4011-.9521v-8.2525c0-.3589-.1425-.7031-.3963-.9568-.2538-.2538-.5979-.3964-.9568-.3964h-8.2526c-.3589 0-.703.1426-.9568.3964-.25376.2537-.39633.5979-.39633.9568v8.2525c0 .3589.14257.7031.39633.9569.2538.2537.5979.3963.9568.3963zm1.3532-8.2526h5.5295v5.4795h-5.5295z"/><path d="m28.8336 56.4323h8.2526c.3474-.004.68-.1416.9288-.3842s.3948-.5716.4076-.9188v-8.3528c0-.3589-.1425-.7031-.3963-.9568-.2538-.2538-.5979-.3964-.9568-.3964h-8.2359c-.3589 0-.703.1426-.9568.3964-.2538.2537-.3963.5979-.3963.9568v8.3528c.017.3487.1665.6778.418.92s.586.3792.9351.383zm1.3699-8.2525h5.5295v5.5295h-5.5295z"/><path d="m46.943 39.5243h8.1857c.3576-.0043.6992-.1483.9521-.4011.2528-.2529.3968-.5945.4011-.9521v-8.2525c0-.3589-.1426-.7031-.3963-.9568-.2538-.2538-.598-.3964-.9569-.3964h-8.1857c-.3589 0-.7031.1426-.9568.3964-.2538.2537-.3964.5979-.3964.9568v8.2525c0 .3589.1426.7031.3964.9569.2537.2537.5979.3963.9568.3963zm1.3531-8.2526h5.5296v5.4795h-5.5296z"/><path d="m46.943 56.4323h8.1857c.3576-.0043.6992-.1483.9521-.4011.2528-.2528.3968-.5945.4011-.952v-8.3027c0-.3589-.1426-.7031-.3963-.9568-.2538-.2538-.598-.3964-.9569-.3964h-8.1857c-.3589 0-.7031.1426-.9568.3964-.2538.2537-.3964.5979-.3964.9568v8.3528c.013.3501.1613.6815.4137.9246.2523.243.5891.3787.9395.3784zm1.3531-8.2525h5.5296v5.5295h-5.5296z"/></g></svg>

<svg width="66" height="66" viewBox="0 0 66 66" fill="none" xmlns="http://www.w3.org/2000/svg">
<path d="M64.5671 6.49847H53.5748V1.35315C53.5748 0.994274 53.4322 0.650094 53.1785 0.396329C52.9247 0.142564 52.5805 3.79291e-09 52.2216 3.79291e-09H44.3199C43.9595 -2.67992e-05 43.6136 0.142002 43.3571 0.395298C43.1007 0.648594 42.9544 0.992746 42.9501 1.35315V6.49847H22.9034V1.35315C22.9038 1.00556 22.7704 0.671129 22.5309 0.4192C22.2914 0.167271 21.9642 0.017165 21.617 3.79291e-09L13.7153 3.79291e-09C13.3564 3.79291e-09 13.0122 0.142564 12.7585 0.396329C12.5047 0.650094 12.3621 0.994274 12.3621 1.35315V6.49847H1.35315C0.994274 6.49847 0.650094 6.64104 0.396329 6.8948C0.142564 7.14857 3.79291e-09 7.49275 3.79291e-09 7.85162L3.79291e-09 64.4501C-2.67992e-05 64.8106 0.142002 65.1565 0.395298 65.4129C0.648594 65.6693 0.992746 65.8156 1.35315 65.82H64.5671C64.9275 65.8156 65.2716 65.6693 65.5249 65.4129C65.7782 65.1565 65.9202 64.8106 65.9202 64.4501V7.85162C65.9202 7.67393 65.8852 7.49797 65.8172 7.3338C65.7492 7.16962 65.6496 7.02045 65.5239 6.8948C65.3982 6.76915 65.2491 6.66948 65.0849 6.60147C64.9207 6.53347 64.7448 6.49847 64.5671 6.49847ZM45.6731 2.7063H50.8518V12.9802H45.6731V2.7063ZM15.035 2.7063H20.2305V12.9802H15.035V2.7063ZM2.7063 9.20478H12.3621V14.3334C12.3621 14.6923 12.5047 15.0364 12.7585 15.2902C13.0122 15.544 13.3564 15.6865 13.7153 15.6865H21.617C21.7947 15.6865 21.9707 15.6515 22.1349 15.5835C22.299 15.5155 22.4482 15.4159 22.5738 15.2902C22.6995 15.1646 22.7992 15.0154 22.8672 14.8512C22.9352 14.687 22.9702 14.5111 22.9702 14.3334V9.20478H43.0169V14.3334C43.0213 14.6938 43.1675 15.0379 43.424 15.2912C43.6804 15.5445 44.0263 15.6866 44.3867 15.6865H52.2885C52.6474 15.6865 52.9915 15.544 53.2453 15.2902C53.4991 15.0364 53.6416 14.6923 53.6416 14.3334V9.20478H63.2807V19.2281H2.7063V9.20478ZM63.2139 63.097H2.7063V21.8843H63.2139V63.097Z" fill="white"/>
<path d="M10.7418 56.4323H18.9944C19.3519 56.428 19.6936 56.284 19.9464 56.0312C20.1992 55.7784 20.3432 55.4367 20.3475 55.0792V46.7765C20.3475 46.4176 20.205 46.0734 19.9512 45.8197C19.6974 45.5659 19.3533 45.4233 18.9944 45.4233H10.7418C10.3829 45.4233 10.0388 45.5659 9.785 45.8197C9.53124 46.0734 9.38867 46.4176 9.38867 46.7765V55.1293C9.40165 55.4794 9.54992 55.8108 9.80229 56.0539C10.0547 56.2969 10.3915 56.4326 10.7418 56.4323ZM12.095 48.1798H17.6245V53.7093H12.095V48.1798Z" fill="white"/>
<path d="M28.8336 39.5243H37.0862C37.4451 39.5243 37.7892 39.3817 38.043 39.128C38.2968 38.8742 38.4393 38.53 38.4393 38.1711V29.9186C38.4393 29.5597 38.2968 29.2155 38.043 28.9618C37.7892 28.708 37.4451 28.5654 37.0862 28.5654H28.8336C28.4747 28.5654 28.1306 28.708 27.8768 28.9618C27.623 29.2155 27.4805 29.5597 27.4805 29.9186V38.1711C27.4848 38.5287 27.6288 38.8703 27.8816 39.1232C28.1344 39.376 28.4761 39.52 28.8336 39.5243ZM30.2035 31.2717H35.733V36.7512H30.2035V31.2717Z" fill="white"/>
<path d="M10.7418 39.5243H18.9944C19.3519 39.52 19.6936 39.376 19.9464 39.1232C20.1992 38.8703 20.3432 38.5287 20.3475 38.1711V29.9186C20.3475 29.5597 20.205 29.2155 19.9512 28.9618C19.6974 28.708 19.3533 28.5654 18.9944 28.5654H10.7418C10.3829 28.5654 10.0388 28.708 9.785 28.9618C9.53124 29.2155 9.38867 29.5597 9.38867 29.9186V38.1711C9.38867 38.53 9.53124 38.8742 9.785 39.128C10.0388 39.3817 10.3829 39.5243 10.7418 39.5243ZM12.095 31.2717H17.6245V36.7512H12.095V31.2717Z" fill="white"/>
<path d="M28.8336 56.4323H37.0862C37.4336 56.4283 37.7662 56.2907 38.015 56.0481C38.2638 55.8055 38.4098 55.4765 38.4226 55.1293V46.7765C38.4226 46.4176 38.2801 46.0734 38.0263 45.8197C37.7725 45.5659 37.4284 45.4233 37.0695 45.4233H28.8336C28.4747 45.4233 28.1306 45.5659 27.8768 45.8197C27.623 46.0734 27.4805 46.4176 27.4805 46.7765V55.1293C27.4975 55.478 27.647 55.8071 27.8985 56.0493C28.15 56.2915 28.4845 56.4285 28.8336 56.4323ZM30.2035 48.1798H35.733V53.7093H30.2035V48.1798Z" fill="white"/>
<path d="M46.943 39.5243H55.1287C55.4863 39.52 55.8279 39.376 56.0808 39.1232C56.3336 38.8703 56.4776 38.5287 56.4819 38.1711V29.9186C56.4819 29.5597 56.3393 29.2155 56.0856 28.9618C55.8318 28.708 55.4876 28.5654 55.1287 28.5654H46.943C46.5841 28.5654 46.2399 28.708 45.9862 28.9618C45.7324 29.2155 45.5898 29.5597 45.5898 29.9186V38.1711C45.5898 38.53 45.7324 38.8742 45.9862 39.128C46.2399 39.3817 46.5841 39.5243 46.943 39.5243ZM48.2961 31.2717H53.8257V36.7512H48.2961V31.2717Z" fill="white"/>
<path d="M46.943 56.4323H55.1287C55.4863 56.428 55.8279 56.284 56.0808 56.0312C56.3336 55.7784 56.4776 55.4367 56.4819 55.0792V46.7765C56.4819 46.4176 56.3393 46.0734 56.0856 45.8197C55.8318 45.5659 55.4876 45.4233 55.1287 45.4233H46.943C46.5841 45.4233 46.2399 45.5659 45.9862 45.8197C45.7324 46.0734 45.5898 46.4176 45.5898 46.7765V55.1293C45.6028 55.4794 45.7511 55.8108 46.0035 56.0539C46.2558 56.2969 46.5926 56.4326 46.943 56.4323ZM48.2961 48.1798H53.8257V53.7093H48.2961V48.1798Z" fill="white"/>
</svg>
